X: 39492
T: Tatter Jack Walsh
R: jig
M: 6/8
K: Dmixolydian
|:e|fef ded|cAB c2 A|dcA GFG|Add efg|
fef ded|cAB c2 A|dcA GFG|1 Ad^c d2:|2 Ad^c d2A||
|:dfa afd|dfa a2f|gag gef|ged ^cde|
fed ded|cAB c2A|dcA GFG|Ad^c d2A:|

